templates/default/images/comments/block_user.svg

<?xml version="1.0" encoding="UTF-8" standalone="no"?>
<!-- GamingOnLinux Block Icon -->

<svg
   xmlns:dc="http://purl.org/dc/elements/1.1/"
   xmlns:cc="http://creativecommons.org/ns#"
   xmlns:rdf="http://www.w3.org/1999/02/22-rdf-syntax-ns#"
   xmlns:svg="http://www.w3.org/2000/svg"
   xmlns="http://www.w3.org/2000/svg"
   xmlns:sodipodi="http://sodipodi.sourceforge.net/DTD/sodipodi-0.dtd"
   xmlns:inkscape="http://www.inkscape.org/namespaces/inkscape"
   version="1.1"
   x="0px"
   y="0px"
   viewBox="0 0 13.999999 13.999957"
   enable-background="new 0 0 1000 1000"
   xml:space="preserve"
   id="svg8"
   sodipodi:docname="block_user.svg"
   inkscape:version="0.92.1 r15371"
   width="13.999999"
   height="13.999957"><metadata
     id="metadata14"><rdf:RDF><cc:Work
         rdf:about=""><dc:format>image/svg+xml</dc:format><dc:type
           rdf:resource="http://purl.org/dc/dcmitype/StillImage" /><dc:title></dc:title></cc:Work></rdf:RDF></metadata><defs
     id="defs12" /><sodipodi:namedview
     pagecolor="#ffffff"
     bordercolor="#666666"
     borderopacity="1"
     objecttolerance="10"
     gridtolerance="10"
     guidetolerance="10"
     inkscape:pageopacity="0"
     inkscape:pageshadow="2"
     inkscape:window-width="1920"
     inkscape:window-height="1029"
     id="namedview10"
     showgrid="false"
     inkscape:zoom="5.6568542"
     inkscape:cx="77.027757"
     inkscape:cy="30.983434"
     inkscape:window-x="0"
     inkscape:window-y="0"
     inkscape:window-maximized="1"
     inkscape:current-layer="svg8"
     fit-margin-top="0"
     fit-margin-left="0"
     fit-margin-right="0"
     fit-margin-bottom="0" /><g
     id="g6"
     transform="matrix(0.01428392,0,0,0.01428392,-0.14198177,-0.14198204)"><g
       id="g4"><path
         d="M 431.80518,14.768666 C 699.77172,-22.891576 947.57111,163.83866 985.23136,431.8052 1022.9055,699.87077 836.16136,947.57113 568.19482,985.23137 300.22829,1022.8917 52.428888,836.16138 14.768647,568.19484 -22.891594,300.2283 163.83864,52.428906 431.80518,14.768666 Z M 884.12498,446.01477 C 854.31411,233.89935 658.2292,86.050236 446.01475,115.87504 353.62274,128.85988 273.44851,173.45195 214.74115,237.14227 L 831.28917,701.65598 C 876.3442,627.76644 897.10983,538.40679 884.12498,446.01477 Z M 553.97133,884.02598 C 646.36334,871.04113 726.53758,826.44906 785.1459,762.77267 L 168.71084,298.34406 c -45.04113,73.98857 -65.82067,163.24919 -52.83582,255.64121 29.81087,212.11541 225.98089,359.85158 438.09631,330.04071 z"
         id="path2"
         inkscape:connector-curvature="0" /></g></g></svg>

<?xml version="1.0" encoding="UTF-8"?>
<!-- GamingOnLinux Block Icon -->
<svg id="svg8" width="14" height="14" enable-background="new 0 0 1000 1000" version="1.1" viewBox="0 0 14 14" xml:space="preserve" xmlns="http://www.w3.org/2000/svg" xmlns:cc="http://creativecommons.org/ns#" xmlns:dc="http://purl.org/dc/elements/1.1/" xmlns:rdf="http://www.w3.org/1999/02/22-rdf-syntax-ns#"><metadata id="metadata14"><rdf:RDF><cc:Work rdf:about=""><dc:format>image/svg+xml</dc:format><dc:type rdf:resource="http://purl.org/dc/dcmitype/StillImage"/><dc:title/></cc:Work></rdf:RDF></metadata><g id="g6" transform="matrix(.014284 0 0 .014284 -.14198 -.14198)"><g id="g4"><path id="path2" d="m431.81 14.769c267.97-37.66 515.77 149.07 553.43 417.04 37.674 268.07-149.07 515.77-417.04 553.43-267.97 37.66-515.77-149.07-553.43-417.04s149.07-515.77 417.04-553.43zm452.32 431.25c-29.811-212.12-225.9-359.96-438.11-330.14-92.392 12.985-172.57 57.577-231.27 121.27l616.55 464.51c45.055-73.89 65.821-163.25 52.836-255.64zm-330.15 438.01c92.392-12.985 172.57-57.577 231.17-121.25l-616.44-464.43c-45.041 73.989-65.821 163.25-52.836 255.64 29.811 212.12 225.98 359.85 438.1 330.04z"/></g></g></svg>
